X:1
T:Be Ye Lamps Unto Yourselves
T:Be Ye Lamps Unto Yourselves
T:From a melody in the Sarum Antiphonal
T:Attributed to Gautama Buddha
C:From a melody in the Sarum Antiphonal
Z:Attributed to Gautama Buddha
%%score { ( 1 2 ) | 3 }
L:1/8
Q:1/4=60
M:10/8
K:C
V:1 treble nm="Piano" snm="Pno."
V:2 treble 
V:3 bass 
V:1
"^\n" FG A_B AG [EA] !fermata![FA]3 |[M:11/8] Gc cG A_BA [DG] !fermata![EA]3 | %2
w: Be ye lamps * un- to your- selves;|be your own * con- * * fi dence;|
 AAG AG FEF !fermata![_B,G]3 |[M:10/8] AG FE F[_B,G] [CE] !fermata![A,D]3 |] %4
w: hold to the truth with in * your- selves|as * to the on- * ly lamp.|
V:2
 D4 D2 x4 |[M:11/8] C4 C3 x4 | F3 E2 A,3 x3 |[M:10/8] D2 D3 x5 |] %4
V:3
 D,G, F,2 _B,,2 C, D,3 |[M:11/8] E,4 F,3 _B, A,3 | D,3 C,2 D,3 G,,3 | %3
[M:10/8] F,,2 _B,,3 G,,C, D,3 |] %4

